frontend/public/logo-svg.svg

<?xml version="1.0" encoding="UTF-8"?>
<svg xmlns="http://www.w3.org/2000/svg" xmlns:xlink="http://www.w3.org/1999/xlink" width="270.81pt" height="270.81pt" viewBox="0 0 270.81 270.81" version="1.1">
<defs>
<clipPath id="clip1">
  <path d="M 0 97 L 174 97 L 174 270.808594 L 0 270.808594 Z M 0 97 "/>
</clipPath>
<clipPath id="clip2">
  <path d="M 0 0 L 270.808594 0 L 270.808594 270.808594 L 0 270.808594 Z M 0 0 "/>
</clipPath>
<clipPath id="clip3">
  <path d="M 122 195 L 213 195 L 213 270.808594 L 122 270.808594 Z M 122 195 "/>
</clipPath>
</defs>
<g id="surface1">
<g clip-path="url(#clip1)" clip-rule="nonzero">
<path style=" stroke:none;fill-rule:nonzero;fill:rgb(13.299561%,11.799622%,12.199402%);fill-opacity:1;" d="M 162.902344 166.1875 C 148.804688 152.089844 126.199219 151.6875 111.609375 164.972656 C 123.785156 157.015625 140.273438 158.378906 150.96875 169.074219 C 163.234375 181.339844 163.234375 201.222656 150.96875 213.484375 L 135.570313 228.886719 L 107.3125 257.140625 C 84.738281 253.230469 63.109375 242.566406 45.679688 225.132813 C 28.25 207.703125 17.582031 186.074219 13.671875 163.5 L 41.925781 135.242188 L 57.328125 119.84375 C 69.589844 107.578125 89.476563 107.578125 101.738281 119.84375 C 112.433594 130.539063 113.796875 147.027344 105.839844 159.203125 C 119.128906 144.617188 118.726563 122.011719 104.628906 107.910156 C 90.109375 93.394531 66.574219 93.394531 52.058594 107.910156 L 0.382813 159.585938 C 5.011719 186.308594 17.636719 211.914063 38.269531 232.546875 C 58.902344 253.179688 84.507813 265.800781 111.226563 270.429688 L 144.671875 236.984375 L 162.902344 218.75 C 177.417969 204.238281 177.417969 180.703125 162.902344 166.1875 "/>
</g>
<g clip-path="url(#clip2)" clip-rule="nonzero">
<path style=" stroke:none;fill-rule:nonzero;fill:rgb(13.299561%,11.799622%,12.199402%);fill-opacity:1;" d="M 38.265625 39.894531 C 17.035156 61.128906 4.285156 87.632813 0 115.195313 C 5.867188 99.695313 15.03125 85.160156 27.507813 72.683594 C 33.886719 66.304688 40.808594 60.796875 48.117188 56.140625 C 49.257813 54.902344 50.421875 53.679688 51.621094 52.480469 C 97.808594 6.292969 172.695313 6.292969 218.882813 52.480469 C 265.074219 98.671875 265.074219 173.558594 218.882813 219.742188 C 216.988281 221.640625 215.035156 223.4375 213.046875 225.179688 C 208.75 231.570313 203.78125 237.652344 198.128906 243.304688 C 185.652344 255.785156 171.113281 264.945313 155.613281 270.808594 C 183.179688 266.527344 209.683594 253.777344 230.914063 232.542969 C 284.113281 179.347656 284.113281 93.09375 230.914063 39.894531 C 177.71875 -13.300781 91.464844 -13.304688 38.265625 39.894531 "/>
</g>
<path style=" stroke:none;fill-rule:nonzero;fill:rgb(13.299561%,11.799622%,12.199402%);fill-opacity:1;" d="M 187.765625 183.792969 C 198.597656 169.128906 197.375 148.351563 184.09375 135.070313 C 173.363281 124.339844 157.746094 121.488281 144.40625 126.5 C 149.417969 113.160156 146.566406 97.542969 135.835938 86.8125 C 123.074219 74.050781 103.398438 72.425781 88.867188 81.929688 C 90.546875 79.8125 92.363281 77.769531 94.316406 75.820313 C 98.828125 71.304688 103.800781 67.53125 109.070313 64.476563 C 91.1875 67.019531 73.949219 75.171875 60.191406 88.925781 C 57.832031 91.285156 55.640625 93.75 53.613281 96.304688 C 71.160156 84.828125 94.921875 86.792969 110.335938 102.203125 C 123.292969 115.160156 126.734375 134.019531 120.679688 150.128906 C 136.789063 144.078125 155.648438 147.519531 168.609375 160.480469 C 184.648438 176.519531 186.121094 201.605469 173.039063 219.3125 C 176.316406 216.859375 179.460938 214.152344 182.441406 211.171875 C 196.195313 197.417969 204.34375 180.179688 206.890625 162.292969 C 203.832031 167.566406 200.0625 172.535156 195.546875 177.050781 C 193.078125 179.515625 190.476563 181.761719 187.765625 183.792969 "/>
<g clip-path="url(#clip3)" clip-rule="nonzero">
<path style=" stroke:none;fill-rule:nonzero;fill:rgb(13.299561%,11.799622%,12.199402%);fill-opacity:1;" d="M 165.214844 227.855469 L 122.8125 270.253906 C 146.285156 268.179688 169.230469 258.773438 187.929688 242.03125 C 176.976563 247.480469 165.355469 251.125 153.503906 252.96875 C 166.964844 247.875 179.582031 239.921875 190.417969 229.085938 C 200.296875 219.210938 207.777344 207.847656 212.886719 195.722656 C 210.730469 198.394531 208.414063 200.980469 205.933594 203.460938 C 194.15625 215.238281 180.113281 223.355469 165.214844 227.855469 "/>
</g>
<path style=" stroke:none;fill-rule:nonzero;fill:rgb(13.299561%,11.799622%,12.199402%);fill-opacity:1;" d="M 75.640625 58.480469 C 63.515625 63.585938 52.15625 71.070313 42.28125 80.945313 C 31.445313 91.78125 23.492188 104.402344 18.398438 117.859375 C 20.390625 105.039063 24.511719 92.488281 30.726563 80.761719 C 12.765625 99.832031 2.710938 123.628906 0.554688 147.996094 L 43.992188 104.558594 C 48.582031 90.25 56.546875 76.789063 67.902344 65.433594 C 70.386719 62.949219 72.96875 60.636719 75.640625 58.480469 "/>
</g>
</svg>

<svg xmlns="http://www.w3.org/2000/svg" width="361.08" height="361.08" viewBox="0 0 270.81 270.81">
  <defs>
    <clipPath id="prefix__a">
      <path d="M0 97h174v173.809H0zm0 0" />
    </clipPath>
    <clipPath id="prefix__b">
      <path d="M0 0h270.809v270.809H0zm0 0" />
    </clipPath>
    <clipPath id="prefix__c">
      <path d="M122 195h91v75.809h-91zm0 0" />
    </clipPath>
  </defs>
  <g clip-path="url(#prefix__a)">
    <path
      d="M162.902 166.188c-14.097-14.098-36.703-14.5-51.293-1.215 12.176-7.957 28.664-6.594 39.36 4.101 12.265 12.266 12.265 32.149 0 44.41l-15.399 15.403-28.257 28.254c-22.575-3.91-44.204-14.575-61.633-32.008-17.43-17.43-28.098-39.059-32.008-61.633l28.254-28.258 15.402-15.398c12.262-12.266 32.149-12.266 44.41 0 10.696 10.695 12.059 27.183 4.102 39.36 13.289-14.587 12.887-37.192-1.211-51.294-14.52-14.515-38.055-14.515-52.57 0L.383 159.586c4.629 26.723 17.254 52.328 37.887 72.96 20.632 20.634 46.238 33.255 72.957 37.884l33.445-33.446 18.23-18.234c14.516-14.512 14.516-38.047 0-52.563"
      fill="#221e1f" />
  </g>
  <g clip-path="url(#prefix__b)">
    <path
      d="M38.266 39.895C17.036 61.129 4.286 87.633 0 115.195c5.867-15.5 15.031-30.035 27.508-42.511a121.264 121.264 0 0120.61-16.543c1.14-1.239 2.304-2.461 3.503-3.66 46.188-46.188 121.074-46.188 167.262 0 46.191 46.19 46.191 121.078 0 167.261a119.028 119.028 0 01-5.836 5.438 121.46 121.46 0 01-14.918 18.125c-12.477 12.48-27.016 21.64-42.516 27.504 27.567-4.282 54.07-17.032 75.301-38.266 53.2-53.195 53.2-139.45 0-192.648-53.195-53.196-139.45-53.2-192.648 0"
      fill="#221e1f" />
  </g>
  <path
    d="M187.766 183.793c10.832-14.664 9.609-35.441-3.672-48.723-10.73-10.73-26.348-13.582-39.688-8.57 5.012-13.34 2.16-28.957-8.57-39.688-12.762-12.761-32.438-14.386-46.969-4.882a70.782 70.782 0 015.45-6.11 71.557 71.557 0 0114.753-11.343C91.188 67.02 73.95 75.172 60.191 88.926a86.283 86.283 0 00-6.578 7.379c17.547-11.477 41.309-9.512 56.723 5.898 12.957 12.957 16.398 31.817 10.344 47.926 16.11-6.05 34.968-2.61 47.93 10.351 16.038 16.04 17.511 41.125 4.43 58.833a87.05 87.05 0 009.401-8.141c13.754-13.754 21.903-30.992 24.45-48.879a71.716 71.716 0 01-11.344 14.758 72.75 72.75 0 01-7.781 6.742"
    fill="#221e1f" />
  <g clip-path="url(#prefix__c)">
    <path
      d="M165.215 227.855l-42.403 42.399c23.473-2.074 46.418-11.48 65.118-28.223a117.977 117.977 0 01-34.426 10.938c13.46-5.094 26.078-13.047 36.914-23.883 9.879-9.875 17.36-21.238 22.469-33.363a97.807 97.807 0 01-6.953 7.738c-11.778 11.777-25.82 19.894-40.72 24.394"
      fill="#221e1f" />
  </g>
  <path
    d="M75.64 58.48c-12.124 5.106-23.484 12.59-33.359 22.465-10.836 10.836-18.789 23.457-23.883 36.914a117.86 117.86 0 0112.329-37.097C12.766 99.832 2.71 123.629.555 147.996l43.437-43.437c4.59-14.309 12.555-27.77 23.91-39.125a97.729 97.729 0 017.739-6.954"
    fill="#221e1f" />
</svg>
